X:392
T: Youghal[l] Waltz
N: O'Farrell's Pocket Companion v.4 (Sky ed. p.167)
D: O'Sullivan Meets O'Farrell track 14B
N: "Irish"
M: 3/8
L: 1/8
Q: 160
R: waltz
K: G
B/A/| G G/A/F/A/| G G/A/F/A/| G/F/G/A/B/c/| d/e/d/c/B/A/|
G G/A/F/A/| G G/A/F/A/| G/B/A/c/F/A/| G2 :|
P:2
G/F/| E E/G/F/G/| D D/G/F/G/|  E E/G/F/G/| D2F|
G/F/G/A/B/c/| d/e/d/c/B/A/| GGF| G2 :|
P:3
D| GGB| ddg| AAd| BGD| GGB| ddg| A A/G/A/B/| G2 :|
P:4
d| g/f/e/d/c/B/| e/d/c/B/A/G/|  G/F/G/A/B/c/| BAF|
g/f/e/d/c/B/| e/d/c/B/A/G/| F//G//A//B// c/A/G/F/| G2 :|
